;FLAVOR:Marlin
;TIME:1422
;Filament used: 0.523503m
;Layer height: 0.12
;MINX:90
;MINY:76.5
;MINZ:0.3
;MAXX:130
;MAXY:128
;MAXZ:4.98
;ZOFFSETPROCESSED
;Generated with Cura_SteamEngine 5.2.1
M82 ;absolute extrusion mode
; Ender 3 Custom Start G-code
G92 E0 ; Reset Extruder
G28 ; Home all axes
M104 S175 ; Start heating up the nozzle most of the way
M190 S60 ; Start heating the bed, wait until target temperature reached
M109 S205.0 ; Finish heating the nozzle
G1 Z2.0 F3000 ; Move Z Axis up little to prevent scratching of Heat Bed
G1 X0.1 Y20 Z0.3 F5000.0 ; Move to start position
G1 X0.1 Y200.0 Z0.3 F1500.0 E15 ; Draw the first line
G1 X0.4 Y200.0 Z0.3 F5000.0 ; Move to side a little
G1 X0.4 Y20 Z0.3 F1500.0 E30 ; Draw the second line
G92 E0 ; Reset Extruder
G1 Z2.0 F3000 ; Move Z Axis up little to prevent scratching of Heat Bed
G1 X5 Y20 Z0.3 F5000.0 ; Move over to prevent blob squish
G92 E0
G92 E0
G1 F1500 E-6.5
;LAYER_COUNT:40
;LAYER:0
M107
G0 F6000 X94.661 Y82.43 Z0.43 ;adjusted by z offset
G92 Z0.3 ;consider this the original z before offset
;TYPE:SKIRT
G1 F1500 E0
G1 F600 X94.919 Y82.15 E0.019
G1 X95.441 Y81.62 E0.05611
G1 X95.766 Y81.312 E0.07845
G1 X96.225 Y80.901 E0.10919
G1 X96.551 Y80.625 E0.1305
G1 X97.394 Y79.978 E0.18351
G1 X98.182 Y79.432 E0.23134
G1 X98.975 Y78.932 E0.27811
G1 X99.575 Y78.612 E0.31204
G1 X100.488 Y78.161 E0.36284
G1 X101.7 Y77.65 E0.42846
G1 X102.23 Y77.463 E0.4565
G1 X102.964 Y77.232 E0.49489
G1 X103.475 Y77.091 E0.52134
G1 X104.273 Y76.903 E0.56224
G1 X104.765 Y76.806 E0.58726
G1 X105.461 Y76.692 E0.62245
G1 X105.88 Y76.637 E0.64353
G1 X106.696 Y76.558 E0.68443
G1 X107.313 Y76.529 E0.71525
G1 X108.929 Y76.5 E0.79588
G1 X111.066 Y76.5 E0.9025
G1 X112.694 Y76.529 E0.98373
G1 X113.529 Y76.577 E1.02546
G1 X113.917 Y76.614 E1.0449
G1 X114.543 Y76.692 E1.07638
G1 X115.259 Y76.808 E1.11256
G1 X115.918 Y76.942 E1.14611
G1 X116.693 Y77.133 E1.18594
G1 X117.063 Y77.237 E1.20511
G1 X117.77 Y77.462 E1.24213
G1 X118.192 Y77.612 E1.26447
G1 X118.717 Y77.814 E1.29253
G1 X119.113 Y77.978 E1.31392
G1 X119.796 Y78.288 E1.35134
G1 X120.223 Y78.5 E1.37512
G1 X120.958 Y78.901 E1.41689
G1 X121.425 Y79.179 E1.44401
G1 X122.079 Y79.601 E1.48284
G1 X122.483 Y79.882 E1.50739
G1 X123.159 Y80.391 E1.54961
G1 X123.573 Y80.729 E1.57627
G1 X124.07 Y81.161 E1.60913
G1 X124.35 Y81.419 E1.62812
G1 X124.881 Y81.942 E1.6653
G1 X125.188 Y82.266 E1.68757
G1 X125.559 Y82.678 E1.71523
G1 X125.821 Y82.984 E1.73533
G1 X126.502 Y83.866 E1.79092
G1 X127.06 Y84.67 E1.83975
G1 X127.561 Y85.463 E1.88655
G1 X127.883 Y86.066 E1.92065
G1 X128.335 Y86.98 E1.97152
G1 X128.845 Y88.186 E2.03685
G1 X129.034 Y88.72 E2.06511
G1 X129.268 Y89.464 E2.10402
G1 X129.409 Y89.975 E2.13047
G1 X129.597 Y90.773 E2.17137
G1 X129.694 Y91.265 E2.19639
G1 X129.808 Y91.958 E2.23143
G1 X129.863 Y92.376 E2.25246
G1 X129.942 Y93.19 E2.29326
G1 X129.971 Y93.807 E2.32408
G1 X130 Y95.403 E2.40372
G1 X130 Y109.066 E3.08537
G1 X129.971 Y110.694 E3.1666
G1 X129.923 Y111.529 E3.20833
G1 X129.886 Y111.917 E3.22777
G1 X129.808 Y112.548 E3.25949
G1 X129.67 Y113.366 E3.30088
G1 X129.586 Y113.785 E3.3222
G1 X129.403 Y114.555 E3.36168
G1 X129.252 Y115.101 E3.38995
G1 X128.916 Y116.121 E3.44353
G1 X128.665 Y116.773 E3.47838
G1 X128.268 Y117.678 E3.52768
G1 X128.017 Y118.188 E3.55604
G1 X127.591 Y118.973 E3.6006
G1 X127.312 Y119.44 E3.62774
G1 X126.897 Y120.082 E3.66588
G1 X126.613 Y120.49 E3.69068
G1 X126.103 Y121.166 E3.73293
G1 X125.768 Y121.576 E3.75934
G1 X125.339 Y122.07 E3.79199
G1 X125.081 Y122.35 E3.81098
G1 X124.546 Y122.892 E3.84898
G1 X124.221 Y123.199 E3.87128
G1 X123.792 Y123.584 E3.90004
G1 X123.465 Y123.862 E3.92145
G1 X122.606 Y124.522 E3.9755
G1 X121.821 Y125.066 E4.02314
G1 X121.028 Y125.567 E4.06994
G1 X120.427 Y125.887 E4.10391
G1 X119.512 Y126.339 E4.15483
G1 X118.3 Y126.85 E4.22045
G1 X117.77 Y127.037 E4.24849
G1 X117.036 Y127.268 E4.28688
G1 X116.525 Y127.409 E4.31332
G1 X115.727 Y127.597 E4.35423
G1 X115.235 Y127.694 E4.37925
G1 X114.539 Y127.808 E4.41443
G1 X114.12 Y127.863 E4.43552
G1 X113.304 Y127.942 E4.47642
G1 X112.687 Y127.971 E4.50723
G1 X111.071 Y128 E4.58787
G1 X108.934 Y128 E4.69448
G1 X107.306 Y127.971 E4.77572
G1 X106.471 Y127.923 E4.81744
G1 X106.083 Y127.886 E4.83689
G1 X105.457 Y127.808 E4.86836
G1 X104.741 Y127.692 E4.90455
G1 X104.082 Y127.558 E4.9381
G1 X103.307 Y127.367 E4.97792
G1 X102.937 Y127.263 E4.9971
G1 X102.23 Y127.038 E5.03411
G1 X101.808 Y126.888 E5.05646
G1 X101.283 Y126.686 E5.08452
G1 X100.887 Y126.522 E5.1059
G1 X100.195 Y126.207 E5.14384
G1 X99.767 Y125.994 E5.16769
G1 X99.041 Y125.598 E5.20895
G1 X98.569 Y125.317 E5.23635
G1 X97.909 Y124.891 E5.27554
G1 X97.507 Y124.611 E5.29998
G1 X96.842 Y124.11 E5.34152
G1 X96.43 Y123.774 E5.36805
G1 X95.948 Y123.356 E5.39988
G1 X95.671 Y123.102 E5.41863
G1 X95.098 Y122.538 E5.45874
G1 X94.789 Y122.21 E5.48122
G1 X94.44 Y121.821 E5.50729
G1 X94.178 Y121.515 E5.52739
G1 X93.493 Y120.627 E5.58334
G1 X92.933 Y119.819 E5.63239
G1 X92.432 Y119.026 E5.67919
G1 X92.112 Y118.425 E5.71316
G1 X91.661 Y117.512 E5.76396
G1 X91.15 Y116.3 E5.82958
G1 X90.963 Y115.77 E5.85762
G1 X90.732 Y115.036 E5.89601
G1 X90.591 Y114.525 E5.92246
G1 X90.403 Y113.727 E5.96336
G1 X90.306 Y113.235 E5.98838
G1 X90.189 Y112.517 E6.02467
G1 X90.12 Y111.983 E6.05153
G1 X90.031 Y110.785 E6.11147
G1 X90 Y109.071 E6.19699
G1 X90 Y95.434 E6.87735
G1 X90.028 Y93.826 E6.95758
G1 X90.075 Y92.997 E6.99901
G1 X90.113 Y92.594 E7.0192
G1 X90.192 Y91.957 E7.05123
G1 X90.308 Y91.241 E7.08741
G1 X90.442 Y90.582 E7.12096
G1 X90.633 Y89.807 E7.16079
G1 X90.737 Y89.437 E7.17996
G1 X90.962 Y88.73 E7.21698
G1 X91.112 Y88.308 E7.23932
G1 X91.325 Y87.756 E7.26884
G1 X91.494 Y87.351 E7.29073
G1 X91.784 Y86.715 E7.32561
G1 X91.99 Y86.298 E7.34881
G1 X92.404 Y85.537 E7.39203
G1 X92.683 Y85.069 E7.41921
G1 X93.103 Y84.418 E7.45786
G1 X93.387 Y84.01 E7.48267
G1 X93.897 Y83.334 E7.52491
G1 X94.232 Y82.924 E7.55133
G1 X94.661 Y82.43 E7.58397
G0 F6000 X94.955 Y82.701
G1 F600 X95.213 Y82.421 E7.60296
G1 X95.717 Y81.91 E7.63877
G1 X96.042 Y81.602 E7.66111
G1 X96.484 Y81.206 E7.69072
G1 X96.81 Y80.93 E7.71203
G1 X97.622 Y80.307 E7.76309
G1 X98.41 Y79.761 E7.81092
G1 X99.189 Y79.27 E7.85686
G1 X99.752 Y78.97 E7.88869
G1 X100.665 Y78.519 E7.93949
G1 X101.833 Y78.027 E8.00272
G1 X102.363 Y77.84 E8.03076
G1 X103.071 Y77.618 E8.06778
G1 X103.582 Y77.477 E8.09422
G1 X104.351 Y77.295 E8.13365
G1 X104.843 Y77.198 E8.15867
G1 X105.513 Y77.088 E8.19254
G1 X105.932 Y77.033 E8.21363
G1 X106.726 Y76.957 E8.25342
G1 X107.32 Y76.929 E8.28309
G1 X108.929 Y76.9 E8.36337
G1 X111.066 Y76.9 E8.46999
G1 X112.687 Y76.929 E8.55087
G1 X113.491 Y76.975 E8.59105
G1 X113.879 Y77.012 E8.6105
G1 X114.482 Y77.087 E8.64081
G1 X115.426 Y77.247 E8.68858
G1 X116.097 Y77.394 E8.72285
G1 X116.584 Y77.518 E8.74792
G1 X116.954 Y77.622 E8.7671
G1 X117.636 Y77.839 E8.8028
G1 X118.058 Y77.989 E8.82515
G1 X118.564 Y78.184 E8.8522
G1 X118.96 Y78.348 E8.87358
G1 X119.618 Y78.647 E8.90964
G1 X120.045 Y78.859 E8.93343
G1 X120.753 Y79.245 E8.97366
G1 X121.22 Y79.523 E9.00077
G1 X121.851 Y79.929 E9.03821
G1 X122.255 Y80.21 E9.06276
G1 X122.906 Y80.701 E9.10344
G1 X123.32 Y81.039 E9.1301
G1 X123.799 Y81.455 E9.16175
G1 X124.079 Y81.713 E9.18075
G1 X124.59 Y82.217 E9.21656
G1 X124.897 Y82.541 E9.23883
G1 X125.255 Y82.938 E9.2655
G1 X125.517 Y83.244 E9.28559
G1 X126.173 Y84.094 E9.33916
G1 X126.731 Y84.898 E9.38799
G1 X127.223 Y85.677 E9.43395
G1 X127.525 Y86.243 E9.46596
G1 X127.977 Y87.157 E9.51683
G1 X128.468 Y88.319 E9.57977
G1 X128.657 Y88.853 E9.60803
G1 X128.882 Y89.571 E9.64556
G1 X129.023 Y90.082 E9.67201
G1 X129.205 Y90.851 E9.71144
G1 X129.302 Y91.343 E9.73646
G1 X129.411 Y92.01 E9.77017
G1 X129.466 Y92.428 E9.79121
G1 X129.543 Y93.221 E9.83096
G1 X129.571 Y93.815 E9.86062
G1 X129.6 Y95.403 E9.93986
G1 X129.6 Y109.066 E10.62151
G1 X129.571 Y110.687 E10.7024
G1 X129.525 Y111.491 E10.74257
G1 X129.488 Y111.879 E10.76202
G1 X129.412 Y112.487 E10.79259
G1 X129.278 Y113.288 E10.83311
G1 X129.194 Y113.707 E10.85443
G1 X129.018 Y114.448 E10.89242
G1 X128.867 Y114.994 E10.92069
G1 X128.542 Y115.977 E10.97234
G1 X128.291 Y116.629 E11.00719
G1 X127.91 Y117.502 E11.05472
G1 X127.659 Y118.012 E11.08307
G1 X127.248 Y118.767 E11.12596
G1 X126.969 Y119.234 E11.1531
G1 X126.569 Y119.854 E11.18991
G1 X126.285 Y120.262 E11.21471
G1 X125.793 Y120.913 E11.25542
G1 X125.458 Y121.323 E11.28184
G1 X125.045 Y121.799 E11.31328
G1 X124.787 Y122.079 E11.33227
G1 X124.271 Y122.602 E11.36893
G1 X123.946 Y122.909 E11.39123
G1 X123.533 Y123.279 E11.4189
G1 X123.206 Y123.557 E11.44031
G1 X122.378 Y124.193 E11.4924
G1 X121.593 Y124.737 E11.54005
G1 X120.814 Y125.228 E11.58599
G1 X120.25 Y125.529 E11.61788
G1 X119.335 Y125.981 E11.6688
G1 X118.167 Y126.473 E11.73203
G1 X117.637 Y126.66 E11.76007
G1 X116.929 Y126.882 E11.79709
G1 X116.418 Y127.023 E11.82353
G1 X115.649 Y127.205 E11.86296
G1 X115.157 Y127.302 E11.88798
G1 X114.487 Y127.412 E11.92185
G1 X114.068 Y127.467 E11.94293
G1 X113.274 Y127.543 E11.98273
G1 X112.68 Y127.571 E12.0124
G1 X111.071 Y127.6 E12.09268
G1 X108.934 Y127.6 E12.1993
G1 X107.313 Y127.571 E12.28018
G1 X106.509 Y127.525 E12.32036
G1 X106.121 Y127.488 E12.3398
G1 X105.518 Y127.413 E12.37012
G1 X104.574 Y127.253 E12.41789
G1 X103.903 Y127.106 E12.45216
G1 X103.416 Y126.982 E12.47723
G1 X103.046 Y126.878 E12.4964
G1 X102.364 Y126.661 E12.53211
G1 X101.942 Y126.511 E12.55446
G1 X101.436 Y126.316 E12.58151
G1 X101.04 Y126.152 E12.60289
G1 X100.373 Y125.849 E12.63944
G1 X99.945 Y125.636 E12.66329
G1 X99.246 Y125.254 E12.70303
G1 X98.774 Y124.973 E12.73044
G1 X98.138 Y124.563 E12.76819
G1 X97.736 Y124.283 E12.79263
G1 X97.095 Y123.8 E12.83268
G1 X96.683 Y123.464 E12.8592
G1 X96.218 Y123.062 E12.88987
G1 X95.941 Y122.808 E12.90862
G1 X95.39 Y122.264 E12.94725
G1 X95.081 Y121.936 E12.96973
G1 X94.744 Y121.561 E12.99488
G1 X94.482 Y121.255 E13.01498
G1 X93.822 Y120.399 E13.0689
G1 X93.262 Y119.591 E13.11795
G1 X92.771 Y118.812 E13.16389
G1 X92.47 Y118.248 E13.19579
G1 X92.019 Y117.335 E13.24659
G1 X91.527 Y116.167 E13.30982
G1 X91.34 Y115.637 E13.33786
G1 X91.118 Y114.929 E13.37488
G1 X90.977 Y114.418 E13.40132
G1 X90.795 Y113.649 E13.44075
G1 X90.698 Y113.157 E13.46577
G1 X90.585 Y112.465 E13.50075
G1 X90.516 Y111.931 E13.52761
G1 X90.431 Y110.778 E13.58529
G1 X90.4 Y109.071 E13.67047
G1 X90.4 Y95.434 E14.35082
G1 X90.428 Y93.834 E14.43066
G1 X90.473 Y93.035 E14.47058
G1 X90.511 Y92.632 E14.49078
G1 X90.587 Y92.018 E14.52164
G1 X90.747 Y91.074 E14.56941
G1 X90.894 Y90.403 E14.60368
G1 X91.018 Y89.916 E14.62875
G1 X91.122 Y89.546 E14.64793
G1 X91.339 Y88.864 E14.68363
G1 X91.489 Y88.442 E14.70598
G1 X91.695 Y87.91 E14.73444
G1 X91.864 Y87.505 E14.75634
G1 X92.142 Y86.892 E14.78992
G1 X92.348 Y86.475 E14.81312
G1 X92.747 Y85.742 E14.85476
G1 X93.026 Y85.274 E14.88194
G1 X93.431 Y84.646 E14.91922
G1 X93.715 Y84.238 E14.94402
G1 X94.207 Y83.587 E14.98473
G1 X94.542 Y83.177 E15.01115
G1 X94.955 Y82.701 E15.04259
G0 F6000 X95.249 Y82.972
G1 F600 X95.507 Y82.692 E15.06158
G1 X95.992 Y82.2 E15.09605
G1 X96.317 Y81.892 E15.11839
G1 X96.742 Y81.511 E15.14687
G1 X97.068 Y81.235 E15.16818
G1 X97.85 Y80.636 E15.21732
G1 X98.638 Y80.09 E15.26515
G1 X99.402 Y79.609 E15.31019
G1 X99.93 Y79.329 E15.34001
G1 X100.843 Y78.878 E15.39081
G1 X101.966 Y78.404 E15.45162
G1 X102.496 Y78.217 E15.47966
G1 X103.177 Y78.003 E15.51528
G1 X103.688 Y77.862 E15.54172
G1 X104.428 Y77.688 E15.57965
G1 X104.92 Y77.591 E15.60467
G1 X105.565 Y77.485 E15.63728
G1 X105.984 Y77.43 E15.65836
G1 X106.756 Y77.356 E15.69705
G1 X107.328 Y77.329 E15.72562
G1 X108.929 Y77.3 E15.80551
G1 X111.066 Y77.3 E15.91212
G1 X112.679 Y77.329 E15.99261
G1 X113.453 Y77.373 E16.03129
G1 X113.841 Y77.41 E16.05073
G1 X114.422 Y77.482 E16.07994
G1 X114.754 Y77.533 E16.0967
G1 X115.352 Y77.64 E16.12701
G1 X116.007 Y77.784 E16.16047
G1 X116.476 Y77.904 E16.18462
G1 X116.846 Y78.008 E16.20379
G1 X117.502 Y78.216 E16.23813
G1 X117.924 Y78.366 E16.26047
G1 X118.411 Y78.553 E16.2865
G1 X118.807 Y78.717 E16.30788
G1 X119.44 Y79.005 E16.34258
G1 X119.867 Y79.217 E16.36636
G1 X120.548 Y79.588 E16.40505
G1 X121.015 Y79.866 E16.43216
G1 X121.622 Y80.257 E16.46819
G1 X122.026 Y80.538 E16.49274
G1 X122.653 Y81.011 E16.53192
G1 X123.067 Y81.349 E16.55859
G1 X123.528 Y81.749 E16.58904
G1 X123.808 Y82.007 E16.60803
G1 X124.3 Y82.492 E16.6425
G1 X124.607 Y82.816 E16.66477
G1 X124.951 Y83.198 E16.69041
G1 X125.213 Y83.504 E16.71051
G1 X125.845 Y84.322 E16.76208
G1 X126.403 Y85.126 E16.81091
G1 X126.884 Y85.89 E16.85595
G1 X127.166 Y86.42 E16.8859
G1 X127.618 Y87.334 E16.93677
G1 X128.091 Y88.453 E16.99738
G1 X128.28 Y88.987 E17.02564
G1 X128.497 Y89.677 E17.06173
G1 X128.638 Y90.188 E17.08818
G1 X128.812 Y90.928 E17.1261
G1 X128.909 Y91.42 E17.15112
G1 X129.015 Y92.062 E17.18358
G1 X129.07 Y92.48 E17.20462
G1 X129.144 Y93.251 E17.24326
G1 X129.171 Y93.823 E17.27183
G1 X129.2 Y95.403 E17.35067
G1 X129.2 Y109.066 E18.03232
G1 X129.171 Y110.679 E18.1128
G1 X129.127 Y111.453 E18.15148
G1 X129.09 Y111.841 E18.17093
G1 X129.017 Y112.426 E18.20034
G1 X128.886 Y113.209 E18.23995
G1 X128.802 Y113.628 E18.26127
G1 X128.632 Y114.342 E18.29788
G1 X128.481 Y114.888 E18.32615
G1 X128.169 Y115.834 E18.37584
G1 X127.918 Y116.486 E18.4107
G1 X127.551 Y117.325 E18.45638
G1 X127.3 Y117.835 E18.48474
G1 X126.904 Y118.562 E18.52605
G1 X126.625 Y119.029 E18.55319
G1 X126.241 Y119.625 E18.58856
G1 X125.957 Y120.033 E18.61336
G1 X125.484 Y120.66 E18.65254
G1 X125.149 Y121.07 E18.67896
G1 X124.751 Y121.528 E18.70923
G1 X124.493 Y121.808 E18.72822
G1 X123.996 Y122.311 E18.7635
G1 X123.671 Y122.618 E18.78581
G1 X123.274 Y122.974 E18.81241
G1 X122.947 Y123.252 E18.83382
G1 X122.15 Y123.865 E18.88399
G1 X121.365 Y124.409 E18.93164
G1 X120.6 Y124.89 E18.97672
G1 X120.073 Y125.17 E19.00649
G1 X119.158 Y125.622 E19.05741
G1 X118.034 Y126.096 E19.11827
G1 X117.504 Y126.283 E19.14631
G1 X116.823 Y126.497 E19.18192
G1 X116.312 Y126.638 E19.20837
G1 X115.572 Y126.812 E19.24629
G1 X115.08 Y126.909 E19.27131
G1 X114.435 Y127.015 E19.30392
G1 X114.016 Y127.07 E19.325
G1 X113.244 Y127.144 E19.3637
G1 X112.672 Y127.171 E19.39226
G1 X111.071 Y127.2 E19.47215
G1 X108.934 Y127.2 E19.57877
G1 X107.321 Y127.171 E19.65925
G1 X106.547 Y127.127 E19.69793
G1 X106.159 Y127.09 E19.71738
G1 X105.578 Y127.018 E19.74658
G1 X105.246 Y126.967 E19.76334
G1 X104.648 Y126.86 E19.79365
G1 X103.993 Y126.716 E19.82711
G1 X103.524 Y126.596 E19.85126
G1 X103.154 Y126.492 E19.87043
G1 X102.498 Y126.284 E19.90477
G1 X102.076 Y126.134 E19.92711
G1 X101.589 Y125.947 E19.95314
G1 X101.193 Y125.783 E19.97452
G1 X100.551 Y125.491 E20.00971
G1 X100.123 Y125.278 E20.03356
G1 X99.45 Y124.91 E20.07183
G1 X98.978 Y124.629 E20.09923
G1 X98.366 Y124.235 E20.13555
G1 X97.964 Y123.955 E20.15999
G1 X97.348 Y123.49 E20.19849
G1 X96.936 Y123.154 E20.22502
G1 X96.488 Y122.767 E20.25455
G1 X96.211 Y122.513 E20.2733
G1 X95.681 Y121.989 E20.31049
G1 X95.372 Y121.661 E20.33297
G1 X95.048 Y121.301 E20.35713
G1 X94.786 Y120.995 E20.37723
G1 X94.151 Y120.171 E20.42913
G1 X93.591 Y119.363 E20.47818
G1 X93.11 Y118.599 E20.52322
G1 X92.829 Y118.07 E20.5531
G1 X92.378 Y117.157 E20.6039
G1 X91.904 Y116.034 E20.66472
G1 X91.717 Y115.504 E20.69276
G1 X91.503 Y114.823 E20.72837
G1 X91.362 Y114.312 E20.75482
G1 X91.188 Y113.572 E20.79274
G1 X91.091 Y113.08 E20.81776
G1 X90.982 Y112.414 E20.85143
G1 X90.913 Y111.88 E20.87829
G1 X90.831 Y110.77 E20.93382
G1 X90.8 Y109.071 E21.0186
G1 X90.8 Y95.434 E21.69895
G1 X90.828 Y93.841 E21.77844
G1 X90.871 Y93.072 E21.81687
G1 X90.909 Y92.669 E21.83706
G1 X90.982 Y92.078 E21.86677
G1 X91.033 Y91.746 E21.88353
G1 X91.14 Y91.148 E21.91384
G1 X91.284 Y90.493 E21.94729
G1 X91.404 Y90.024 E21.97145
G1 X91.508 Y89.654 E21.99062
G1 X91.716 Y88.998 E22.02495
G1 X91.866 Y88.576 E22.0473
G1 X92.064 Y88.064 E22.07469
G1 X92.233 Y87.659 E22.09658
G1 X92.501 Y87.069 E22.12891
G1 X92.707 Y86.652 E22.15211
G1 X93.091 Y85.947 E22.19217
G1 X93.37 Y85.479 E22.21935
G1 X93.759 Y84.875 E22.25519
G1 X94.043 Y84.467 E22.27999
