;FLAVOR:Marlin
;TIME:14730
;Filament used: 7.26319m
;Layer height: 0.2
;MINX:80.4
;MINY:85.145
;MINZ:0.3
;MAXX:219.6
;MAXY:214.855
;MAXZ:7.1
;POSTPROCESSED
;ZOFFSETPROCESSED
;Generated with Cura_SteamEngine 5.2.1
M140 S60
M105
M190 S60
M104 S205
M105
M109 S205
M82 ;absolute extrusion mode
; -- START GCODE --
G21                     ;set units to millimetres
G90                     ;set to absolute positioning
M106 S0                 ;set fan speed to zero (turned off)
G28                     ;home all axis
M420 S1                 ;turn on mesh bed levelling if enabled in firmware
G92 E0                  ;zero the extruded length
G1 Z1 F1000             ;move up slightly
G1 X60.0 Z0 E9.0 F1000.0;intro line
G1 X100.0 E21.5 F1000.0 ;continue line
G92 E0                  ;zero the extruded length again
; -- end of START GCODE --
G92 E0
G92 E0
G1 F2700 E-8.2
;LAYER_COUNT:30
;LAYER:0
M117 Layer 0 of 29 JA5A5S_Kit1_Chasis
M107
G1 F600 Z1.44 ;adjusted by z offset
G92 Z1.3 ;consider this the original z before offset
G0 F1440 X96.211 Y103.192 Z1.3
;TYPE:SKIRT
G1 F600 Z0.3
G1 F2700 E0
G1 F480 X96.928 Y102.59 E0.04671
G1 X98.142 Y101.722 E0.12116
G1 X99.238 Y101.066 E0.18489
G1 X99.768 Y100.784 E0.21484
G1 X100.632 Y100.378 E0.26247
G1 X101.131 Y100.162 E0.2896
G1 X101.814 Y99.91 E0.32592
G1 X102.883 Y99.569 E0.3819
G1 X104.183 Y99.234 E0.44887
G1 X105.866 Y98.828 E0.53525
G1 X107.196 Y98.519 E0.60337
G1 X109.81 Y97.86 E0.73786
G1 X112.355 Y97.14 E0.86981
G1 X114.924 Y96.335 E1.00413
G1 X117.404 Y95.48 E1.135
G1 X119.896 Y94.542 E1.26784
G1 X122.375 Y93.528 E1.40147
G1 X124.8 Y92.454 E1.53379
G1 X127.204 Y91.307 E1.66667
G1 X129.563 Y90.099 E1.7989
G1 X131.876 Y88.831 E1.9305
G1 X134.189 Y87.475 E2.06426
G1 X135.792 Y86.484 E2.15828
G1 X136.417 Y86.088 E2.1952
G1 X137.023 Y85.751 E2.22979
G1 X137.663 Y85.487 E2.26433
G1 X138.329 Y85.298 E2.29887
G1 X139.013 Y85.187 E2.33344
G1 X139.534 Y85.156 E2.35948
G1 X140.256 Y85.145 E2.39551
G1 X159.532 Y85.145 E3.35719
G1 X160.349 Y85.157 E3.39795
G1 X161.04 Y85.207 E3.43252
G1 X161.72 Y85.337 E3.46706
G1 X162.381 Y85.544 E3.50161
G1 X163.117 Y85.872 E3.54181
G1 X163.891 Y86.344 E3.58704
G1 X165.381 Y87.281 E3.67486
G1 X167.695 Y88.645 E3.80887
G1 X170.027 Y89.934 E3.9418
G1 X172.389 Y91.15 E4.07434
G1 X174.792 Y92.305 E4.20736
G1 X177.204 Y93.382 E4.33914
G1 X179.671 Y94.399 E4.47227
G1 X182.163 Y95.345 E4.60525
G1 X184.693 Y96.225 E4.73889
G1 X187.172 Y97.011 E4.86864
G1 X189.758 Y97.749 E5.00281
G1 X192.591 Y98.468 E5.14863
G1 X194.152 Y98.832 E5.22859
G1 X195.748 Y99.218 E5.31051
G1 X196.711 Y99.462 E5.36008
G1 X197.439 Y99.665 E5.39778
G1 X198.14 Y99.894 E5.43457
G1 X199.126 Y100.268 E5.48719
G1 X199.628 Y100.494 E5.51465
G1 X200.215 Y100.776 E5.54714
G1 X201.024 Y101.209 E5.59292
G1 X202.078 Y101.876 E5.65515
G1 X202.551 Y102.208 E5.68398
G1 X203.607 Y103.029 E5.75071
G1 X204.417 Y103.771 E5.80552
G1 X204.934 Y104.299 E5.84238
G1 X205.468 Y104.894 E5.88227
G1 X205.941 Y105.473 E5.91957
G1 X206.535 Y106.265 E5.96896
G1 X207.203 Y107.299 E6.03038
G1 X207.713 Y108.235 E6.08356
G1 X208.123 Y109.099 E6.13127
G1 X208.599 Y110.288 E6.19516
G1 X208.883 Y111.141 E6.24002
G1 X209.079 Y111.879 E6.27811
G1 X209.211 Y112.448 E6.30725
G1 X209.397 Y113.423 E6.35677
G1 X209.516 Y114.456 E6.40865
G1 X209.569 Y115.305 E6.45109
G1 X209.599 Y116.888 E6.53008
G1 X209.599 Y119.234 E6.64712
G1 X209.589 Y119.935 E6.6821
G1 X209.54 Y120.625 E6.71661
G1 X209.453 Y121.122 E6.74178
G1 X209.161 Y122.467 E6.81045
G1 X208.616 Y125.17 E6.94802
G1 X208.165 Y127.787 E7.0805
G1 X207.791 Y130.403 E7.21234
G1 X207.49 Y133.039 E7.34471
G1 X207.261 Y135.704 E7.47816
G1 X207.108 Y138.363 E7.61103
G1 X207.031 Y140.996 E7.74245
G1 X207.029 Y143.658 E7.87526
G1 X207.103 Y146.327 E8.00847
G1 X207.25 Y148.978 E8.14093
G1 X207.475 Y151.644 E8.27441
G1 X207.771 Y154.263 E8.4059
G1 X208.143 Y156.899 E8.53872
G1 X208.591 Y159.528 E8.67177
G1 X209.109 Y162.12 E8.80364
G1 X209.699 Y164.697 E8.93553
G1 X210.378 Y167.313 E9.07037
G1 X211.116 Y169.857 E9.20253
G1 X211.923 Y172.378 E9.33459
G1 X212.81 Y174.897 E9.46782
G1 X213.76 Y177.368 E9.5999
G1 X214.781 Y179.815 E9.73218
G1 X215.878 Y182.25 E9.86542
G1 X217.046 Y184.657 E9.9989
G1 X218.275 Y187.018 E10.13169
G1 X218.853 Y188.075 E10.1918
G1 X219.15 Y188.7 E10.22632
G1 X219.372 Y189.356 E10.26087
G1 X219.517 Y190.033 E10.29541
G1 X219.587 Y190.862 E10.33692
G1 X219.6 Y191.754 E10.38143
G1 X219.599 Y208.128 E11.19833
G1 X219.586 Y208.938 E11.23874
G1 X219.535 Y209.629 E11.27331
G1 X219.405 Y210.309 E11.30785
G1 X219.197 Y210.97 E11.34242
G1 X218.915 Y211.602 E11.37695
G1 X218.561 Y212.197 E11.41149
G1 X218.141 Y212.748 E11.44606
G1 X217.661 Y213.247 E11.4806
G1 X217.126 Y213.687 E11.51516
G1 X216.544 Y214.063 E11.54973
G1 X215.923 Y214.369 E11.58427
G1 X215.27 Y214.601 E11.61884
G1 X214.596 Y214.757 E11.65335
G1 X213.677 Y214.841 E11.69939
G1 X212.721 Y214.855 E11.74709
G1 X87.109 Y214.854 E18.0139
G1 X86.315 Y214.841 E18.05352
G1 X85.624 Y214.79 E18.08809
G1 X84.944 Y214.659 E18.12264
G1 X84.283 Y214.451 E18.15721
G1 X83.651 Y214.169 E18.19174
G1 X83.056 Y213.815 E18.22628
G1 X82.505 Y213.395 E18.26084
G1 X82.007 Y212.914 E18.29538
G1 X81.567 Y212.379 E18.32994
G1 X81.191 Y211.797 E18.36451
G1 X80.886 Y211.176 E18.39903
G1 X80.653 Y210.524 E18.43357
G1 X80.498 Y209.849 E18.46812
G1 X80.414 Y208.929 E18.51421
G1 X80.4 Y207.945 E18.56331
G1 X80.401 Y191.597 E19.37892
G1 X80.411 Y190.894 E19.41399
G1 X80.46 Y190.203 E19.44855
G1 X80.589 Y189.523 E19.48308
G1 X80.796 Y188.862 E19.51764
G1 X81.12 Y188.147 E19.5568
G1 X81.657 Y187.144 E19.61356
G1 X82.903 Y184.759 E19.74781
G1 X84.063 Y182.378 E19.87995
G1 X85.152 Y179.97 E20.0118
G1 X86.198 Y177.471 E20.14695
G1 X87.145 Y175.018 E20.27814
G1 X88.036 Y172.501 E20.41135
G1 X88.85 Y169.972 E20.54389
G1 X89.581 Y167.464 E20.67422
G1 X90.261 Y164.858 E20.80859
G1 X90.87 Y162.215 E20.94391
G1 X91.383 Y159.662 E21.07382
G1 X91.832 Y157.054 E21.20585
G1 X92.213 Y154.389 E21.34016
G1 X92.511 Y151.777 E21.47132
G1 X92.741 Y149.107 E21.60502
G1 X92.892 Y146.458 E21.73739
G1 X92.968 Y143.824 E21.86886
G1 X92.97 Y141.158 E22.00186
G1 X92.897 Y138.499 E22.13457
G1 X92.746 Y135.824 E22.26824
G1 X92.524 Y133.186 E22.40032
G1 X92.227 Y130.557 E22.53231
G1 X91.848 Y127.888 E22.66681
G1 X91.405 Y125.295 E22.79805
G1 X90.847 Y122.516 E22.93946
G1 X90.547 Y121.128 E23.0103
G1 X90.418 Y120.304 E23.05191
G1 X90.4 Y119.08 E23.11299
G1 X90.402 Y116.829 E23.22529
G1 X90.434 Y115.143 E23.30942
G1 X90.471 Y114.585 E23.33732
G1 X90.591 Y113.519 E23.39084
G1 X90.738 Y112.701 E23.4323
G1 X90.916 Y111.897 E23.47339
G1 X91.092 Y111.249 E23.50689
G1 X91.337 Y110.444 E23.54887
G1 X91.587 Y109.799 E23.58338
G1 X92.066 Y108.7 E23.64319
G1 X92.303 Y108.216 E23.67007
G1 X92.857 Y107.204 E23.72763
G1 X93.253 Y106.589 E23.76413
G1 X93.665 Y105.99 E23.8004
G1 X94.011 Y105.529 E23.82915
G1 X94.448 Y104.996 E23.86354
G1 X95.105 Y104.254 E23.91299
G1 X95.496 Y103.864 E23.94054
G1 X96.211 Y103.192 E23.98949
G0 F1440 X96.478 Y103.49
G1 F480 X97.169 Y102.909 E24.03453
G1 X98.36 Y102.058 E24.10756
G1 X99.444 Y101.409 E24.17059
G1 X99.938 Y101.146 E24.19851
G1 X100.984 Y100.654 E24.25618
G1 X101.951 Y100.286 E24.3078
G1 X103.001 Y99.952 E24.36277
G1 X104.283 Y99.621 E24.42883
G1 X105.956 Y99.218 E24.51468
G1 X107.287 Y98.909 E24.58285
G1 X109.912 Y98.247 E24.71792
G1 X112.479 Y97.521 E24.85101
G1 X115.037 Y96.72 E24.98474
G1 X117.528 Y95.861 E25.1162
G1 X120.071 Y94.903 E25.25177
G1 X122.522 Y93.901 E25.38388
G1 X124.969 Y92.817 E25.5174
G1 X127.366 Y91.673 E25.64991
G1 X129.73 Y90.462 E25.78242
G1 X132.106 Y89.16 E25.91759
G1 X134.421 Y87.803 E26.05147
G1 X135.949 Y86.858 E26.1411
G1 X136.632 Y86.425 E26.18145
G1 X137.217 Y86.102 E26.21479
G1 X137.837 Y85.85 E26.24818
G1 X138.482 Y85.674 E26.28153
G1 X139.249 Y85.56 E26.32022
G1 X140.256 Y85.545 E26.37046
G1 X159.532 Y85.545 E27.33215
G1 X160.343 Y85.557 E27.37261
G1 X161.01 Y85.607 E27.40598
G1 X161.666 Y85.736 E27.43934
G1 X162.303 Y85.943 E27.47275
G1 X163.166 Y86.37 E27.52079
G1 X163.679 Y86.682 E27.55074
G1 X165.229 Y87.656 E27.64207
G1 X167.477 Y88.982 E27.77229
G1 X169.855 Y90.296 E27.90783
G1 X172.196 Y91.502 E28.03921
G1 X174.605 Y92.66 E28.17256
G1 X177.055 Y93.753 E28.3064
G1 X179.525 Y94.771 E28.43969
G1 X182.037 Y95.725 E28.57375
G1 X184.535 Y96.594 E28.7057
G1 X187.079 Y97.401 E28.83885
G1 X189.632 Y98.129 E28.9713
G1 X192.546 Y98.869 E29.12129
G1 X194.058 Y99.221 E29.19874
G1 X195.65 Y99.606 E29.28046
G1 X196.604 Y99.847 E29.32955
G1 X197.165 Y100.002 E29.35859
G1 X197.825 Y100.202 E29.39299
G1 X198.974 Y100.638 E29.4543
G1 X199.455 Y100.854 E29.48061
G1 X200.042 Y101.136 E29.5131
G1 X200.826 Y101.556 E29.55747
G1 X201.865 Y102.214 E29.61883
G1 X202.306 Y102.524 E29.64572
G1 X203.347 Y103.333 E29.7115
G1 X204.142 Y104.061 E29.76528
G1 X204.645 Y104.576 E29.80119
G1 X205.262 Y105.262 E29.84722
G1 X205.742 Y105.871 E29.88591
G1 X206.213 Y106.505 E29.92531
G1 X206.861 Y107.507 E29.98485
G1 X207.358 Y108.419 E30.03666
G1 X207.757 Y109.259 E30.08306
G1 X208.222 Y110.421 E30.1455
G1 X208.496 Y111.244 E30.18878
G1 X208.692 Y111.982 E30.22687
G1 X208.821 Y112.537 E30.2553
G1 X209.001 Y113.485 E30.30344
G1 X209.14 Y114.697 E30.3643
G1 X209.169 Y115.313 E30.39507
G1 X209.2 Y117.002 E30.47935
G1 X209.199 Y119.228 E30.5904
G1 X209.189 Y119.929 E30.62538
G1 X209.131 Y120.719 E30.6649
G1 X208.769 Y122.388 E30.7501
G1 X208.223 Y125.094 E30.88783
G1 X207.769 Y127.734 E31.02147
G1 X207.396 Y130.337 E31.15266
G1 X207.088 Y133.03 E31.28789
G1 X206.864 Y135.645 E31.41883
G1 X206.71 Y138.329 E31.55296
G1 X206.631 Y141.018 E31.68717
G1 X206.629 Y143.669 E31.81943
G1 X206.703 Y146.36 E31.95373
G1 X206.85 Y149 E32.08565
G1 X207.074 Y151.651 E32.21838
G1 X207.376 Y154.327 E32.35273
G1 X207.751 Y156.985 E32.48665
G1 X208.192 Y159.567 E32.61734
G1 X208.722 Y162.223 E32.75246
G1 X209.316 Y164.815 E32.88512
G1 X209.981 Y167.377 E33.01718
G1 X210.737 Y169.985 E33.15265
G1 X211.541 Y172.496 E33.28419
G1 X212.432 Y175.025 E33.41796
G1 X213.394 Y177.529 E33.55179
G1 X214.419 Y179.984 E33.68452
G1 X215.511 Y182.41 E33.81725
G1 X216.689 Y184.837 E33.95184
G1 X217.917 Y187.195 E34.08448
G1 X218.502 Y188.266 E34.14536
G1 X218.787 Y188.872 E34.17877
G1 X218.998 Y189.506 E34.21211
G1 X219.132 Y190.162 E34.24551
G1 X219.187 Y190.868 E34.28084
G1 X219.2 Y191.754 E34.32505
G1 X219.199 Y208.122 E35.14165
G1 X219.186 Y208.932 E35.18207
G1 X219.136 Y209.599 E35.21544
G1 X219.006 Y210.255 E35.2488
G1 X218.799 Y210.891 E35.28217
G1 X218.517 Y211.498 E35.31556
G1 X218.165 Y212.067 E35.34894
G1 X217.748 Y212.59 E35.38231
G1 X217.271 Y213.06 E35.41572
G1 X216.742 Y213.469 E35.44908
G1 X216.167 Y213.812 E35.48249
G1 X215.556 Y214.084 E35.51585
G1 X214.917 Y214.282 E35.54923
G1 X214.259 Y214.402 E35.5826
G1 X213.671 Y214.441 E35.612
G1 X212.721 Y214.455 E35.6594
G1 X87.115 Y214.454 E41.92591
G1 X86.321 Y214.441 E41.96552
G1 X85.654 Y214.39 E41.9989
G1 X84.998 Y214.26 E42.03226
G1 X84.362 Y214.053 E42.06563
G1 X83.755 Y213.771 E42.09902
G1 X83.186 Y213.419 E42.1324
G1 X82.663 Y213.001 E42.16581
G1 X82.194 Y212.525 E42.19914
G1 X81.785 Y211.995 E42.23254
G1 X81.442 Y211.421 E42.2659
G1 X81.17 Y210.81 E42.29927
G1 X80.973 Y210.17 E42.33268
G1 X80.853 Y209.512 E42.36605
G1 X80.814 Y208.923 E42.3955
G1 X80.8 Y207.945 E42.4443
G1 X80.801 Y191.602 E43.25965
G1 X80.811 Y190.899 E43.29473
G1 X80.86 Y190.232 E43.32809
G1 X80.989 Y189.576 E43.36145
G1 X81.195 Y188.939 E43.39485
G1 X81.473 Y188.336 E43.42798
G1 X82.01 Y187.333 E43.48474
G1 X83.253 Y184.955 E43.61861
G1 X84.423 Y182.552 E43.75195
G1 X85.52 Y180.127 E43.88473
G1 X86.58 Y177.595 E44.02168
G1 X87.512 Y175.179 E44.15087
G1 X88.407 Y172.652 E44.28462
G1 X89.238 Y170.069 E44.41999
G1 X89.966 Y167.572 E44.54975
G1 X90.652 Y164.944 E44.68526
G1 X91.255 Y162.328 E44.81919
G1 X91.776 Y159.738 E44.951
G1 X92.229 Y157.107 E45.08419
G1 X92.608 Y154.455 E45.21784
G1 X92.913 Y151.786 E45.35186
G1 X93.137 Y149.168 E45.48295
G1 X93.29 Y146.49 E45.61678
G1 X93.368 Y143.801 E45.75099
G1 X93.37 Y141.147 E45.8834
G1 X93.296 Y138.466 E46.0172
G1 X93.146 Y135.802 E46.15032
G1 X92.922 Y133.143 E46.28345
G1 X92.626 Y130.527 E46.4148
G1 X92.244 Y127.83 E46.55069
G1 X91.798 Y125.22 E46.68279
G1 X91.238 Y122.431 E46.82471
G1 X90.938 Y121.043 E46.89556
G1 X90.818 Y120.264 E46.93488
G1 X90.8 Y119.08 E46.99396
G1 X90.802 Y116.837 E47.10586
G1 X90.834 Y115.151 E47.18999
G1 X90.868 Y114.63 E47.21604
G1 X90.986 Y113.586 E47.26846
G1 X91.181 Y112.493 E47.32385
G1 X91.429 Y111.526 E47.37366
G1 X91.71 Y110.589 E47.42246
G1 X91.953 Y109.959 E47.45615
G1 X92.432 Y108.86 E47.51596
G1 X92.654 Y108.408 E47.54108
G1 X93.205 Y107.401 E47.59835
G1 X93.589 Y106.805 E47.63372
G1 X94.046 Y106.136 E47.67414
G1 X94.577 Y105.464 E47.71687
G1 X95.224 Y104.723 E47.76595
G1 X95.77 Y104.155 E47.80526
G1 X96.478 Y103.49 E47.85372
G0 F1440 X96.755 Y103.779
G1 F480 X97.409 Y103.229 E47.89635
G1 X98.585 Y102.389 E47.96845
G1 X99.649 Y101.752 E48.03032
G1 X100.108 Y101.508 E48.05625
G1 X101.123 Y101.031 E48.11221
G1 X101.776 Y100.775 E48.1472
G1 X102.316 Y100.584 E48.17577
G1 X102.99 Y100.374 E48.21099
G1 X104.464 Y99.988 E48.28701
G1 X106.005 Y99.617 E48.36609
G1 X107.366 Y99.302 E48.43579
G1 X110.014 Y98.634 E48.57203
G1 X112.592 Y97.905 E48.70569
G1 X115.15 Y97.104 E48.83942
G1 X117.694 Y96.226 E48.97369
G1 X120.197 Y95.284 E49.10712
G1 X122.686 Y94.266 E49.24128
G1 X125.124 Y93.186 E49.37431
G1 X127.556 Y92.025 E49.50876
G1 X129.912 Y90.819 E49.64081
G1 X132.295 Y89.513 E49.77638
G1 X134.622 Y88.149 E49.91095
G1 X136.169 Y87.192 E50.0017
G1 X136.846 Y86.763 E50.04169
G1 X137.411 Y86.452 E50.07386
G1 X138.009 Y86.214 E50.10597
G1 X138.633 Y86.051 E50.13815
G1 X139.547 Y85.956 E50.184
G1 X140.256 Y85.945 E50.21937
G1 X159.532 Y85.945 E51.18106
G1 X160.337 Y85.957 E51.22122
G1 X160.98 Y86.006 E51.25339
G1 X161.611 Y86.135 E51.28553
G1 X162.222 Y86.341 E51.31769
G1 X162.959 Y86.712 E51.35886
G1 X163.466 Y87.021 E51.38848
G1 X164.992 Y87.98 E51.4784
G1 X167.286 Y89.333 E51.61127
G1 X169.658 Y90.644 E51.74648
G1 X172.033 Y91.867 E51.87976
G1 X174.434 Y93.021 E52.01266
G1 X176.918 Y94.129 E52.14836
G1 X179.367 Y95.139 E52.28052
G1 X181.9 Y96.101 E52.4157
G1 X184.398 Y96.97 E52.54765
G1 X186.954 Y97.78 E52.68142
G1 X189.552 Y98.521 E52.81621
G1 X192.454 Y99.258 E52.96558
G1 X193.964 Y99.61 E53.04294
G1 X195.553 Y99.993 E53.12448
G1 X196.383 Y100.202 E53.16719
G1 X197.059 Y100.388 E53.20216
G1 X197.705 Y100.584 E53.23584
G1 X199.04 Y101.099 E53.30723
G1 X199.869 Y101.497 E53.35311
G1 X200.648 Y101.916 E53.39724
G1 X201.651 Y102.551 E53.45647
G1 X202.06 Y102.839 E53.48142
G1 X202.922 Y103.509 E53.53589
G1 X203.593 Y104.099 E53.58047
G1 X204.131 Y104.619 E53.6178
G1 X204.497 Y105.005 E53.64433
G1 X204.967 Y105.534 E53.67964
G1 X205.421 Y106.11 E53.71623
G1 X205.886 Y106.736 E53.75513
G1 X206.516 Y107.711 E53.81305
G1 X207.003 Y108.604 E53.86379
G1 X207.384 Y109.406 E53.90809
G1 X207.846 Y110.56 E53.97011
G1 X208.115 Y111.366 E54.0125
G1 X208.305 Y112.084 E54.04955
G1 X208.431 Y112.625 E54.07727
G1 X208.605 Y113.543 E54.12388
G1 X208.721 Y114.548 E54.17435
G1 X208.769 Y115.32 E54.21294
G1 X208.8 Y117.002 E54.29687
G1 X208.799 Y119.222 E54.40763
G1 X208.789 Y119.923 E54.4426
G1 X208.731 Y120.68 E54.48048
G1 X208.361 Y122.385 E54.56753
G1 X207.838 Y124.979 E54.69954
G1 X207.371 Y127.686 E54.83659
G1 X206.997 Y130.302 E54.96843
G1 X206.694 Y132.952 E55.1015
G1 X206.462 Y135.659 E55.23705
G1 X206.311 Y138.293 E55.36868
G1 X206.231 Y141.007 E55.50414
G1 X206.229 Y143.68 E55.63749
G1 X206.303 Y146.356 E55.77105
G1 X206.451 Y149.022 E55.90426
G1 X206.68 Y151.729 E56.0398
G1 X206.976 Y154.356 E56.17169
G1 X207.355 Y157.036 E56.30673
G1 X207.806 Y159.682 E56.44064
G1 X208.324 Y162.278 E56.57271
G1 X208.925 Y164.9 E56.70691
G1 X209.598 Y167.493 E56.84056
G1 X210.355 Y170.104 E56.97619
G1 X211.169 Y172.646 E57.10936
G1 X212.056 Y175.165 E57.24259
G1 X213.01 Y177.648 E57.3753
G1 X214.062 Y180.167 E57.51149
G1 X215.144 Y182.571 E57.64302
G1 X216.318 Y184.989 E57.77712
